src/assets/img/smiles/1.svg

<?xml version="1.0" encoding="iso-8859-1"?>
<!-- Generator: Adobe Illustrator 19.1.0, SVG Export Plug-In . SVG Version: 6.00 Build 0)  -->
<svg version="1.1" id="Capa_1" xmlns="http://www.w3.org/2000/svg" xmlns:xlink="http://www.w3.org/1999/xlink" x="0px" y="0px"
	 viewBox="0 0 65.44 65.44" style="enable-background:new 0 0 65.44 65.44;" xml:space="preserve">
<g>
	<g id="group-3svg">
		<path id="path-1_21_" style="fill:#EDC951;" d="M65.44,34.88c0,16.616-13.472,30.086-30.089,30.086
			c-16.618,0-30.09-13.47-30.09-30.086S18.733,4.794,35.351,4.794C51.968,4.794,65.44,18.264,65.44,34.88z"/>
		<path id="path-2_21_" d="M45.647,23.775c0,2.01-1.63,3.639-3.64,3.639c-2.01,0-3.64-1.629-3.64-3.639s1.63-3.639,3.64-3.639
			C44.017,20.136,45.647,21.765,45.647,23.775z"/>
		<path id="path-3_21_" d="M24.717,23.775c0,2.01-1.629,3.639-3.639,3.639c-2.011,0-3.64-1.629-3.64-3.639s1.629-3.639,3.64-3.639
			C23.088,20.136,24.717,21.765,24.717,23.775z"/>
		<path id="path-4_21_" d="M19.207,50.977c-0.829,0-1.5-0.672-1.5-1.5c0-6.473,5.209-11.739,11.611-11.739h5.055
			c6.403,0,11.611,5.237,11.611,11.674c0,0.829-0.671,1.5-1.5,1.5c-0.829,0-1.5-0.671-1.5-1.5c0-4.783-3.863-8.674-8.611-8.674
			h-5.055c-4.748,0-8.611,3.92-8.611,8.739C20.707,50.305,20.036,50.977,19.207,50.977z"/>
		<path id="path-5_21_" d="M31.589,63.645C14.171,63.645,0,49.476,0,32.059C0,14.643,14.171,0.474,31.589,0.474
			c17.419,0,31.59,14.169,31.59,31.585C63.179,49.476,49.008,63.645,31.589,63.645z M31.589,3.474C15.825,3.474,3,16.297,3,32.059
			c0,15.763,12.825,28.587,28.589,28.587c15.765,0,28.59-12.824,28.59-28.587C60.179,16.297,47.354,3.474,31.589,3.474z"/>
	</g>
</g>
<g>
</g>
<g>
</g>
<g>
</g>
<g>
</g>
<g>
</g>
<g>
</g>
<g>
</g>
<g>
</g>
<g>
</g>
<g>
</g>
<g>
</g>
<g>
</g>
<g>
</g>
<g>
</g>
<g>
</g>
</svg>

<svg width="66" height="66" viewBox="0 0 66 66" fill="none" xmlns="http://www.w3.org/2000/svg">
<path d="M63.179 32.086C63.179 48.702 49.707 62.172 33.09 62.172C16.472 62.172 3 48.702 3 32.086C3 15.47 16.472 2 33.09 2C49.707 2 63.179 15.47 63.179 32.086Z" fill="#EDC951"/>
<path d="M45.6469 23.775C45.6469 25.785 44.0169 27.414 42.0069 27.414C39.9969 27.414 38.3669 25.785 38.3669 23.775C38.3669 21.765 39.9969 20.136 42.0069 20.136C44.0169 20.136 45.6469 21.765 45.6469 23.775Z" fill="black"/>
<path d="M24.717 23.775C24.717 25.785 23.088 27.414 21.078 27.414C19.067 27.414 17.438 25.785 17.438 23.775C17.438 21.765 19.067 20.136 21.078 20.136C23.088 20.136 24.717 21.765 24.717 23.775Z" fill="black"/>
<path d="M19.207 50.977C18.378 50.977 17.707 50.305 17.707 49.477C17.707 43.004 22.916 37.738 29.318 37.738H34.373C40.776 37.738 45.984 42.975 45.984 49.412C45.984 50.241 45.313 50.912 44.484 50.912C43.655 50.912 42.984 50.241 42.984 49.412C42.984 44.629 39.121 40.738 34.373 40.738H29.318C24.57 40.738 20.707 44.658 20.707 49.477C20.707 50.305 20.036 50.977 19.207 50.977Z" fill="black"/>
<path d="M31.589 63.645C14.171 63.645 0 49.476 0 32.059C0 14.643 14.171 0.473999 31.589 0.473999C49.008 0.473999 63.179 14.643 63.179 32.059C63.179 49.476 49.008 63.645 31.589 63.645ZM31.589 3.474C15.825 3.474 3 16.297 3 32.059C3 47.822 15.825 60.646 31.589 60.646C47.354 60.646 60.179 47.822 60.179 32.059C60.179 16.297 47.354 3.474 31.589 3.474Z" fill="black"/>
</svg>
